X: 1
T: Here's The Tender Coming
M: 3/2
L: 1/8
R: three-two
K: Gmaj
|: d d B A G A| B e e B d2| d d B A G A| B e e B A2|
G G g f e d| d e d B d2| G G g f e d| d e d B A2| z6 :|
